X:1
T:Title
%%score 1 2 3
L:1/8
M:3/2
K:C
V:1 treble nm="Part_1"
V:2 treble-8 nm="Part_2"
V:3 treble-8 nm="Part_3"
V:1
 D8 C4 | D4 E4 F4 | F4 E4 D4 | C2 F2 E2 E2 D2 C2 | E4 z4 F4 | G4 A4 G4 | F2 E2 C2 F2 E2 D2 | %7
 F4 z4 F4 | G8 A4 | G8 F4 | G4 F4 E4 | D6 E2 F2 G2 | E2 D2 C2 C2 B,2 A,2 | C8 z4 | C4 D4 E4 | %15
 F2 E2 C2 F2 E2 D2 | F8 F4 | G4 E4 F4 | E2 D2 C2 C2 B,2 A,2 | C4 z4 F4 | E2 F2 D4 C4 | D12 |] %22
V:2
 A8 G4 | A4 B4 c4 | c4 B4 A4 | G2 c2 B2 B2 A2 G2 | B4 z4 c4 | d4 e4 d4 | c2 B2 G2 c2 B2 A2 | %7
 c4 z4 c4 | d8 e4 | d8 c4 | d4 c4 B4 | A6 B2 c2 d2 | B2 A2 G2 G2 F2 E2 | G8 z4 | G4 A4 B4 | %15
 c2 B2 G2 c2 B2 A2 | c8 c4 | d4 B4 c4 | B2 A2 G2 G2 F2 E2 | G4 z4 c4 | B2 c2 A4 G4 | A12 |] %22
V:3
 D8 E4 | D4 G4 F4 | A4 G4 D4 | E2 A2 G2 E2 F4 | E8 A4 | G4 c4 G4 | A4 E2 A2 G4 | F8 A4 | G8 c4 | %9
 B4 G4 A4 | G4 A4 G4 | D4 F2 A4 G2- | G2 F2 E2 C2 D4 | C8 z4 | E4 F4 G4 | F4 E2 A2 G4 | F8 A4 | %17
 G8 F4 | G2 F2 E2 C2 D4 | C8 A4 | G2 F4 D2 E4 | D12 |] %22

